X:1
T:Mrs. C. H.  Morris
T:Mrs. C. H. M.
T:The Christian's Hope
%%score { ( 1 2 ) | ( 3 4 ) }
L:1/8
M:3/4
K:A
V:1 treble 
V:2 treble 
V:3 bass 
V:4 bass 
V:1
 z[Q:1/4=112]"^Moderato"{/x} E FA | G3 D GF | E3 A BA | G3 E GF | E3 c cA | d3 c cB | F3 B B^A | %7
w: The Chris\- tian's|hope, O how it|cheers, While pass\- ing|thro' this vale of|tears; It spans the|dread un\- known be\-|tween This land and|
w: It whis\- pers|of un\- fail\- ing|joy, E\- ter\- nal|bliss with\- out al\-|loy; Of tears for\-|ev\- er wiped a\-|way, No night, but|
w: It whis\- pers|of a land on|high Where nev\- er\-|more we'll say "Good\-|bye," Where those we've|loved and lost have|gone, And thit\- her\-|
w: What tho' I|can\- not un\- der\-|stand The way for|me my Lord hath|planned? What tho' the|cares of earth may|throng, The wait\- ing|
 c3 B BA | E3 c c=c | d3 c cB | F3 A AB | c3 A B>A | A3"^Chorus" e e>G | G3 e e>c | c3 c c>d | %15
w: that fair land un\-|seen, Where, face to|face, the King I'll|see, And spend with|Him, e\- ter\- ni\-|ty. E\- ter\- ni\-|ty! E\- ter\- ni\-|ty! O Sav\- ior|
w: one un\- cloud\- ed|day; Of rest be\-|side life's cry\- stal|sea Thro'\- out thy|years, e\- ter\- ni\-|ty. * * *|||
w: ward us beck\- on|on. Where re\- u\-|nit\- ed we shall|be, Thro'\- out a|long e\- ter\- ni\-|ty. * * *|||
w: times seem hard and|long? Hope then shall|full fru\- i\- tion|be Thro'\- out thy|years, e\- ter\- ni\-|ty. * * *|||
 c3 F A>G | F3 E AB | c3 e ed | d3"^rit." A[Q:1/4=112]"^Moderato" B[Q:1/4=100]"^Moderato"c | %19
w: mine, What will it|be? From earth\- ly|care and sor\- row|free, To spend with|
w: ||||
w: ||||
w: ||||
[Q:1/4=96]"^Andante" d3[Q:1/4=72]"^Adagio" c[Q:1/4=60]"^Ballad" B>[Q:1/4=48]"^Grave"A | A3 z |] %21
w: Thee e\- ter\- ni\-|ty!|
w: ||
w: ||
w: ||
V:2
 z C CC | D3 D DD | C3 C DC | D3 D DD | C3 E EC | F3 E ^DD | ^D3 =D DC | D3 D DC | C3 E E^D | %9
 F3 E ED | D3 F F=G | E3 C D>C | C3 E G>G | G3 E A>A | A3 A B>B | A3 F F>=F | C3 D CD | E3 A FF | %18
 F3 E F^A | B3 A G>E | E3 z |] %21
V:3
 z z z E, | E,E, E,2 B,G, | A,A, A,3 E, | E,E, E,2 B,G, | A,A, A, z z A, | A,A, A,2 A,2 | %6
w: 1.The|Chris\- tian's hope, O *|how it cheers, While|pass\- ing thro' this *|vale of tears; It|spans the dread un\-|
 B,B, B,3 =G, | G,G, G,2 E,2 | A,A, A, z z A, | ^A,A, A,2 B,2 | B,B, B,3 B, | A,A, A,2 G,>A, | %12
w: known be\- tween This|land and that fair|land un\- seen, Where,|face to face, the|King I'll see, And|spend with Him, e\- *|
 A,>E, E,C B,>D | DD DD C>E | EE EE =F>F | F3 A, C>B, | A,A, A,B, A,A, | A,3 A, A,A, | A,3 C DE | %19
w: ter\- ni\- ty. A long e-|ter- ni- ty! A blest e-|ter- ni- ty! * * *|* * * What|will it be? * * *|||
 F3 E D>C | C3 z |] %21
w: ||
V:4
 z z z A,, | B,,B,, B,,2 E,2 | A,,A,, A,,3 A,, | B,,B,, B,,2 E,2 | A,,A,, A,, z z A,, | %5
 A,,A,, A,2 F,2 | B,,B,, B,,3 E, | E,E, E,2 A,,2 | A,,A,, A,, z z A, | F,F, F,2 B,,2 | %10
 B,,B,, B,,3 D, | E,E, E,2 E,2 | A,,>A,, A,,A, E,>E, | E,E, E,G, A,>A, | A,A, A,A, E,>E, | %15
 F,3 F, C,>C, | F,F, F,G, A,A, | A,3 C, D,D, | D,3 E, D,C, | B,,3 E, E,>A,, | A,,3 z |] %21

